!!!!SEGMENT: Mlu2007-Quam_pulchra_es.krn
!!!id: Mlu2007
!!!AGN: Motet
!!!voices: 4
!!!COM: Pierre Moulu
!!!OTL: Quam pulchra es
**kern	**kern	**kern	**kern
*part4	*part3	*part2	*part1
*staff4	*staff3	*staff2	*staff1
*I"Bassus	*I"Tenor	*I"Altus	*I"Superius
*I'B	*I'T	*I'A	*I'S
*clefF4	*clefF4	*clefGv2	*clefGv2
*k[b-]	*k[b-]	*k[b-]	*k[b-]
*F:	*F:	*F:	*F:
*M2/1	*M2/1	*M2/1	*M2/1
*met(C|)	*met(C|)	*met(C|)	*met(C|)
!!Section: Prima pars: Quam pulchra es
!!!OMD: Prima pars: Quam pulchra es
=1	=1	=1	=1
0r	0r	0F	0r
=2	=2	=2	=2
0r	0r	1F	0r
.	.	1B-y	.
=3	=3	=3	=3
0r	0r	1A	0F
.	.	2r	.
.	.	2A	.
=4	=4	=4	=4
0r	0r	2c	1F
.	.	2c	.
.	.	1d	1B-y
=5	=5	=5	=5
0FF	0r	2.c	1A
.	.	8B-yL	.
.	.	8cJ	.
.	.	2d	2r
.	.	[2c	2A
=6	=6	=6	=6
1FF	0r	4c]	2c
.	.	4B-y	.
.	.	1A	2c
1BB-y	.	.	1d
.	.	2G	.
=7	=7	=7	=7
1AA	0C	2.A	[0c
.	.	8GL	.
.	.	8FJ	.
2r	.	2E	.
2AA	.	2A	.
=8	=8	=8	=8
2C	1C	2G	1c]
2C	.	1A	.
1D	1F	.	2r
.	.	4G	2A
.	.	4F	.
=9	=9	=9	=9
0C	1E	2A	1.c
.	.	1G	.
.	2r	.	.
.	2E	[2c	2c
=10	=10	=10	=10
1r	2G	2c]	1d
.	2G	2B-y	.
2r	1A	1c	[1c
2AA	.	.	.
=11	=11	=11	=11
2C	1G	2r	1c]
2C	.	2E	.
1D	1r	2.F	2r
.	.	.	2A
.	.	4G	.
=12	=12	=12	=12
1C	2r	4A	2c
.	.	4B-y	.
.	2E	1c	2c
2r	[1G	.	1d
2GG	.	2B-y	.
=13	=13	=13	=13
2C	2G]	2c	[0c
2C	2G	2C	.
1FF	1A	1F	.
=14	=14	=14	=14
[0C	[0G	2.E	0c_
.	.	4D	.
.	.	[1E	.
=15	=15	=15	=15
0C;]	0G;]	0E;]	0c;]
=16	=16	=16	=16
0r	0r	0F	0r
=17	=17	=17	=17
0r	0r	1F	0r
.	.	1B-y	.
=18	=18	=18	=18
0r	0r	1A	0F
.	.	2r	.
.	.	2F	.
=19	=19	=19	=19
0r	0r	1c	1F
.	.	1d	1B-y
=20	=20	=20	=20
0FF	0r	2c	1A
.	.	4F	.
.	.	4G	.
.	.	4A	2r
.	.	4B-y	.
.	.	[2c	2F
=21	=21	=21	=21
1FF	0r	4c]	1c
.	.	4B-y	.
.	.	1A	.
1BB-y	.	.	1d
.	.	2G	.
=22	=22	=22	=22
1AA	0C	2A	[0c
.	.	4G	.
.	.	4F	.
2r	.	2E	.
2FF	.	2F	.
=23	=23	=23	=23
1C	1C	2G	1c]
.	.	1A	.
1D	1F	.	2r
.	.	4G	2F
.	.	4F	.
=24	=24	=24	=24
1.C	1E	2A	0c
.	.	2.G	.
.	2r	.	.
.	.	4F	.
4BB-y	2C	[2F	.
4AA	.	.	.
=25	=25	=25	=25
1GG	1G	2F]	2.B-y
.	.	2E	.
.	.	.	4c
1FF	1A	2F	2d
.	.	[2C	[2c
=26	=26	=26	=26
[0C	1G	4C]	2c]
.	.	4D	.
.	.	4E	4B-y
.	.	4F	4A
.	1r	2G	1G
.	.	[2C	.
=27	=27	=27	=27
0C]	0G	4C]	2r
.	.	4D	.
.	.	4E	1c
.	.	4F	.
.	.	4G	.
.	.	4C	.
.	.	[2c	2c
=28	=28	=28	=28
1r	1G	2c]	1d
.	.	2BnXi	.
[1C	1A	1c	2c
.	.	.	4C
.	.	.	4D
=29	=29	=29	=29
1C]	2G	0r	4E
.	.	.	4F
.	2E	.	2G
1C	1G	.	2C
.	.	.	[2c
=30	=30	=30	=30
1D	1F	1r	2c]
.	.	.	2BnXi
2C	[1E	2r	1c
2AA	.	[2c	.
=31	=31	=31	=31
1C	1E]	2c]	2r
.	.	2c	1A
1BB-y	2r	1d	.
.	2D	.	2G
=32	=32	=32	=32
2AA	1F	2c	1A
2FF	.	2A	.
2.C	1E	1c	2G
.	.	.	2E
4BB-y	.	.	.
=33	=33	=33	=33
1GG	1D	1B-y	1G
1D	1r	1A	1F
=34	=34	=34	=34
0C	0G	2r	2.E
.	.	1c	.
.	.	.	4F
.	.	.	4G
.	.	.	4C
.	.	2c	[2c
=35	=35	=35	=35
1r	1G	1d	2c]
.	.	.	2BnXi
[1C	1A	2c	1c
.	.	4C	.
.	.	4D	.
=36	=36	=36	=36
1C]	2G	4E	0r
.	.	4F	.
.	2E	2G	.
1C	1G	2C	.
.	.	[2c	.
=37	=37	=37	=37
1D	1F	2c]	1r
.	.	2BnXi	.
2C	[1E	1c	2r
2AA	.	.	[2c
=38	=38	=38	=38
1C	1E]	2r	2c]
.	.	1G	2c
1BB-y	2r	.	1d
.	2D	2G	.
=39	=39	=39	=39
2AA	1F	1A	2c
2FF	.	.	2A
2.C	1E	2G	1c
.	.	2E	.
4BB-y	.	.	.
=40	=40	=40	=40
1GG	1D	1G	2.B-y
.	.	.	8AL
.	.	.	8GJ
2.D	1r	1F	2A
.	.	.	[2B-y
4C	.	.	.
=41	=41	=41	=41
2AA	2r	1E	4B-]
.	.	.	4A
2C	2E	.	1A
2BB-y	2D	1r	.
2C	2C	.	2G
=42	=42	=42	=42
1FF	1F	0r	[0A
1r	2F	.	.
.	2D	.	.
=43	=43	=43	=43
1AA	2E	0r	1A]
.	2F	.	.
2GG	2G	.	1r
2FF	[2A	.	.
=44	=44	=44	=44
1C	2A]	1r	0r
.	4G	.	.
.	4F	.	.
2C	2E	2r	.
2AA	2F	2A	.
=45	=45	=45	=45
1BB-y	1D	2G	0r
.	.	2F	.
[1AA	2.E	1c	.
.	4D	.	.
=46	=46	=46	=46
2AA]	2E	2c	2r
2FF	2F	2A	2A
2GG	2D	2B-y	2G
2AA	2C	[2A	2F
=47	=47	=47	=47
1FF	0F	2A]	1.c
.	.	2F	.
2r	.	1A	.
[2F	.	.	2A
=48	=48	=48	=48
2F]	0r	1G	1B-y
2E	.	.	.
2.F	.	2F	2A
.	.	[2c	[2A
4FF	.	.	.
=49	=49	=49	=49
1FF	2r	2c]	2A]
.	1F	4B-y	2F
.	.	4A	.
2r	.	2B-y	1G
2C	2E	2c	.
=50	=50	=50	=50
1.D	1F	2A	1F
.	.	2.B-y	.
.	2r	.	1r
.	.	4A	.
2D	2F	4G	.
.	.	4F	.
=51	=51	=51	=51
2.C	1.G	1E	2r
.	.	.	2c
8BB-yL	.	.	.
8AAJ	.	.	.
1GG	.	2r	[1d
.	2G	2G	.
=52	=52	=52	=52
2.D	2F	1.A	2d]
.	2D	.	2d
8CL	.	.	.
8BB-yJ	.	.	.
2AA	2E	.	2c
2FF	2F	2A	2A
=53	=53	=53	=53
2GG	2D	2G	2B-y
2AA	1C	2E	2c
2FF	.	2F	2A
2BB-y	[2D	[2G	[2d
=54	=54	=54	=54
2GG	2D]	2G]	4d]
.	.	.	4c
2C	2E	2.A	1c
1D	1F	.	.
.	.	4G	.
.	.	[2F	2BnXi
=55	=55	=55	=55
1C	2G	2F]	1c
.	1C	2E	.
1FF	.	1F	2r
.	[2F	.	2A
=56	=56	=56	=56
2r	4F]	1r	1.c
.	8EL	.	.
.	8DJ	.	.
2C	2E	.	.
[1F	1F	1A	.
.	.	.	2B-y
=57	=57	=57	=57
2F]	1r	2.c	2A
2E	.	.	2G
.	.	4c	.
2D	1F	2B-y	2F
2C	.	2A	2E
=58	=58	=58	=58
2BB-y	1.B-y	2G	2D
2AA	.	1F	2C
1GG	.	.	1G
.	2B-y	2E	.
=59	=59	=59	=59
0FF	1A	4F	1C
.	.	4G	.
.	.	4A	.
.	.	4B-y	.
.	2A	2c	1r
.	2G	[2d	.
=60	=60	=60	=60
2r	2F	4d]	1r
.	.	4c	.
2C	2E	1c	.
[1F	1D	.	2r
.	.	2B-y	2F
=61	=61	=61	=61
2F]	1C	2.A	2.c
2E	.	.	.
.	.	4G	4c
2D	2r	2F	2B-y
2C	2F	2E	2A
=62	=62	=62	=62
2BB-y	1.B-y	2D	2G
2AA	.	2C	1F
1GG	.	2r	.
.	2B-y	2G	2E
=63	=63	=63	=63
[0FFl	1.A	1.c	1F
.	.	.	2r
.	2G	2B-y	2F
=64	=64	=64	=64
0FF_	2F	2A	1.c
.	2E	2G	.
.	1D	2F	.
.	.	2D	2B-y
=65	=65	=65	=65
0FF_	[0Cl	2.F	2A
.	.	.	2G
.	.	4G	.
.	.	[1A	2F
.	.	.	2C
=66	=66	=66	=66
0FF_	0C_	2A]	2.F
.	.	4G	.
.	.	4F	4G
.	.	[1Fl	2A
.	.	.	2B-y
=	=	=	=
00FF]	00C]	00F]	00A
=||	=||	=||	=||
*M2/1	*M2/1	*M2/1	*M2/1
*met(C|)	*met(C|)	*met(C|)	*met(C|)
!!Section: Secunda pars: Labia tua lilia
!!!OMD: Secunda pars: Labia tua lilia
1.C	1.C	0r	0r
2AA	2C	.	.
=67	=67	=67	=67
1BB-y	1D	0r	0r
1C	1E	.	.
=68	=68	=68	=68
0FF	0F	2r	2r
.	.	2c	2A
.	.	2c	2A
.	.	2c	2A
=69	=69	=69	=69
0r	0r	1.d	1.B-y
.	.	2c	2A
=70	=70	=70	=70
0r	0r	1B-y	2.G
.	.	.	4F
.	.	1c	1E
=71	=71	=71	=71
0FF	0C	0A	0F
=72	=72	=72	=72
1BB-y	1D	0r	0r
1GG	1E	.	.
=73	=73	=73	=73
0FF	0F	1.c	2r
.	.	.	1A
.	.	2c	2A
=74	=74	=74	=74
0r	0r	1d	1B-y
.	.	1B-y	1G
=75	=75	=75	=75
2r	2r	0c	0A
2FF	2F	.	.
2FF	2F	.	.
2FF	2F	.	.
=76	=76	=76	=76
1.C	1.G	0r	0r
2D	2F	.	.
=77	=77	=77	=77
2C	2E	1r	1r
2BB-y	2D	.	.
1AA	1E	2r	2r
.	.	2c	2A
=78	=78	=78	=78
0r	0r	2c	2A
.	.	2B-y	2G
.	.	[1c	[1A
=79	=79	=79	=79
0r	0r	2c]	2A]
.	.	2d	2B-y
.	.	2c	2A
.	.	2B-y	2G
=80	=80	=80	=80
1FF	1C	1A	1A
2FF	2C	2r	2r
2FF	2C	2c	2A
=81	=81	=81	=81
1FF	0C	2c	2A
.	.	2c	2A
2r	.	[1c	[1A
[2FF	.	.	.
=82	=82	=82	=82
4FF]	2r	0c_	1A]
4GG	.	.	.
4AA	2.C	.	.
4BB-y	.	.	.
2.C	.	.	1r
.	4D	.	.
.	4E	.	.
4D	4F	.	.
=83	=83	=83	=83
2E	2G	0c_	0r
1F	1A	.	.
4E	4G	.	.
4D	4F	.	.
=84	=84	=84	=84
2E	2G	1c]	2r
2F	2A	.	2.F
[1FF	1F	2r	.
.	.	.	4G
.	.	[2F	4A
.	.	.	4B-y
=85	=85	=85	=85
1FF]	0r	4F]	2.c
.	.	4G	.
.	.	4A	.
.	.	4B-y	4B-y
1r	.	2c	4A
.	.	.	4G
.	.	[2d	[2B-y
=86	=86	=86	=86
2r	2r	2d]	4B-]
.	.	.	4A
2FF	2F	2.c	1A
2GG	2D	.	.
.	.	8B-yL	.
.	.	8AJ	.
2GG	2E	2B-y	2G
=87	=87	=87	=87
0FF	1F	[0c	[0A
.	2r	.	.
.	2C	.	.
=88	=88	=88	=88
2r	1.F	1c]	1A]
2FF	.	.	.
[1BB-y	.	2r	1r
.	2F	2F	.
=89	=89	=89	=89
2BB-]	1D	1.B-y	0r
2BB-y	.	.	.
1GG	2.G	.	.
.	.	2B-y	.
.	4F	.	.
=90	=90	=90	=90
2.C	4E	2G	0r
.	4D	.	.
.	2E	1c	.
4BB-y	.	.	.
2AA	2C	.	.
4GG	[2F	4B-y	.
4FF	.	4A	.
=91	=91	=91	=91
1GG	2F]	1B-y	2r
.	2E	.	2G
1FF	1F	[1A	[1c
=92	=92	=92	=92
2r	0r	1A]	2c]
2C	.	.	2c
[1F	.	1r	2.A
.	.	.	4B-y
=93	=93	=93	=93
2F]	0r	0r	2c
2F	.	.	1d
1D	.	.	.
.	.	.	4c
.	.	.	4B-y
=94	=94	=94	=94
2.G	2r	0r	2e-i
.	2G	.	2.d
4F	.	.	.
2E	2G	.	.
.	.	.	4c
4D	2E	.	[2c
4C	.	.	.
=95	=95	=95	=95
1D	2.F	0r	2c]
.	.	.	2BnXi
.	4G	.	.
1C	2A	.	[1c
.	[2G	.	.
=96	=96	=96	=96
2r	4G]	0r	0c]
.	4F	.	.
2C	4E	.	.
.	4D	.	.
2C	4E	.	.
.	4C	.	.
2AA	[2F	.	.
=97	=97	=97	=97
2BB-y	2F]	2r	0r
2C	2E	2c	.
2FF	1F	2c	.
[2F	.	2A	.
=98	=98	=98	=98
4F]	1G	2B-y	2r
8EL	.	.	.
8DJ	.	.	.
2E	.	2c	2c
2.F	2A	[1F	2c
.	4D	.	2A
4E	4E	.	.
=99	=99	=99	=99
2D	4F	2F]	2B-y
.	4G	.	.
2C	1A	2.c	2c
1D	.	.	1F
.	.	8B-yL	.
.	.	8AJ	.
.	4G	2B-y	.
.	4F	.	.
=100	=100	=100	=100
0C	2E	[0c	2.G
.	2G	.	.
.	.	.	4F
.	2G	.	4E
.	.	.	4D
.	2E	.	2C
=101	=101	=101	=101
2r	2F	1c]	2.c
2C	2G	.	.
.	.	.	8B-yL
.	.	.	8AJ
2C	2C	1r	4G
.	.	.	4F
2AA	[2F	.	2A
=102	=102	=102	=102
2BB-y	4F]	2r	1G
.	8EL	.	.
.	8DJ	.	.
2C	2E	2c	.
2FF	1F	2c	1F
[2F	.	2A	.
=103	=103	=103	=103
4F]	1G	2B-y	2r
8EL	.	.	.
8DJ	.	.	.
2E	.	2c	2c
2.F	2A	[1F	2c
.	4D	.	2A
4E	4E	.	.
=104	=104	=104	=104
2D	4F	2F]	2B-y
.	4G	.	.
2C	1A	2.c	2c
1D	.	.	1F
.	.	8BnXiL	.
.	.	8AJ	.
.	4G	2Bni	.
.	4F	.	.
=105	=105	=105	=105
1C	1E	1c	1G
1r	1r	1r	1r
=	=	=	=
*M3/1	*M3/1	*M3/1	*M3/1
*met(C|3)	*met(C|3)	*met(C|3)	*met(C|3)
1C	1E	1c	1G
1C	1E	1c	1G
1C	1E	1c	1G
=106	=106	=106	=106
1FF	1F	1c	1A
0GG	0D	0B-y	0G
=107	=107	=107	=107
0AA	0C	0c	0E
1r	1r	1r	1r
=108	=108	=108	=108
1C	1E	1c	1G
1C	1E	1c	1G
1C	1E	1c	1G
=109	=109	=109	=109
1FF	1F	1c	1A
0GG	0D	0B-y	0G
=110	=110	=110	=110
[0.AA	0C	[0.A	0E
.	1r	.	1r
=111	=111	=111	=111
0AA]	0E	0.A]	1%3r
1r	1D	.	.
=112	=112	=112	=112
0AA	1E	1%3r	1%3r
.	1F	.	.
1GG	1G	.	.
=113	=113	=113	=113
1C	1.E	0A	1%3r
0BB-y	.	.	.
.	4D	.	.
.	4C	.	.
.	1D	1G	.
=114	=114	=114	=114
0AA	1E	0c	0A
.	2C	.	.
.	1F	.	.
1r	.	1B-y	1G
.	2E	.	.
=115	=115	=115	=115
0AA	1F	1A	0c
.	1C	1F	.
1GG	1r	1G	1B-y
=116	=116	=116	=116
1C	0E	1A	1.A
0BB-y	.	0B-y	.
.	.	.	4G
.	.	.	4F
.	1D	.	1G
=	=	=	=
*M2/1	*M2/1	*M2/1	*M2/1
*met(C|)	*met(C|)	*met(C|)	*met(C|)
[0AA	1.F	[0c	[0A
.	2E	.	.
=117	=117	=117	=117
0AA]	1E	0c]	0A_
.	2r	.	.
.	2C	.	.
=118	=118	=118	=118
1r	1C	2r	0A]
.	.	2c	.
1FF	1C	1c	.
=119	=119	=119	=119
1FF	1.F	1c	2r
.	.	.	2F
1FF	.	[1f	1F
.	2E	.	.
=120	=120	=120	=120
1.BB-y	[0D	2f]	1F
.	.	2e	.
.	.	2.d	1B-y
2AA	.	.	.
.	.	4c	.
=121	=121	=121	=121
2GG	1D]	2.B-y	2B-y
2FF	.	.	1B-y
.	.	4A	.
[1EE-X	[1E-X	2G	.
.	.	2F	2A
=122	=122	=122	=122
1EE-]	1E-]	2.B-y	1G
.	.	8AL	.
.	.	8GJ	.
[1FF	1C	1A	[1F
=123	=123	=123	=123
1FF]	2r	1r	2F]
.	2C	.	2G
1r	1C	2r	1A
.	.	2c	.
=124	=124	=124	=124
1FF	1C	1c	1r
1FF	[1F	1c	1F
=125	=125	=125	=125
1FF	2F]	1.f	1F
.	2E	.	.
[1BB-y	[1D	.	1F
.	.	2e	.
=126	=126	=126	=126
2BB-]	0D]	2.d	1B-y
2AA	.	.	.
.	.	4c	.
2GG	.	2.B-y	2B-y
2FF	.	.	[2B-y
.	.	4A	.
=127	=127	=127	=127
0EE-i	0E-X	2G	2B-]
.	.	2F	2A
.	.	2.B-y	1G
.	.	8AL	.
.	.	8GJ	.
=128	=128	=128	=128
00FFl	00Cl	00Al	00Fl
==	==	==	==
*-	*-	*-	*-
!!!system-decoration: [*]
!!!RDF**kern: i = editorial accidental
!!!RDF**kern: l = terminal long
!!!ENC: Benjamin Ory
!!!END: 2024/1/26
!!!EED: Benjamin Ory
!!!EEV: 2024/01/26
!!!YEC: Copyright 2024 Benjamin Ory, All Rights Reserved
!!!ONB: Translated from MusicXML on 2024/01/26
